X: 1
T: Danny Ab's Slide
C:
%D:
R: slide, jig
S: Fiddle Hell Online 2022-4-7 handout for Matt Cranitch workshop
B: Matt Cranitch "The Irish Fiddle Book"
Z: 2022 John Chambers <jc:trillian.mit.edu>
M: 12/8
L: 1/8
K: G
|:\
B2B cBc d2d d2e | dBG dBG A2A AGA |\
B2B cBc d2d d2g | fed cBA G3  G3 :|
|:\
g2d B2g f2e  c3 | ded c2A ded B3 |\
g2d B2d g2d c2B | ABc def g3  g3 :|
